!!!OTL: WIR SITZEN SO FROEHLICH
!!!ARE: Europa, Mitteleuropa, Deutschland, Neustadt - Eberswalde, Coethen
!!!SCT: E0602
!!!YEM: Copyright 1995, estate of Helmut Schaffrath.
**kern
*ICvox
*Ivox
*M3/4
*k[f#]
*G:
{4g
=1
4g
4d
4b
=2
4b
4g}
{4dd
=3
4dd
8ee
8dd
8cc
8b
=4
4b
4a}
{4g
=5
4g
4d
4b
=6
4b
4g}
{4dd
=7
4dd
8ee
8dd
8cc
8b
=8
4b
4a}
{8dd
8dd
=9
4cc
4a
8d
8d
=10
4g
4b}
{8dd
8dd
=11
4cc
4a
8d
8d
=12
4g
4b}
{8g
8g
=13
4ee
4ee
4ee
=14
4.dd
8cc}
{8b
8dd
=15
4dd
4cc
8a
8cc
=16
4cc
4b}
{8g
8g
=17
4ee
4ee
4ee
=18
4.dd
8cc}
{8b
8dd
=19
4dd
4cc
8a
8cc
=20
4a
4g}
==
!!!AGN: Liebes - Lied
!!!ONB: ESAC (Essen Associative Code) Database: ERK1
!!!AMT: simple triple
!!!AIN: vox
!!!EED: Helmut Schaffrath
!!!EEV: 1.0
*-
